X: 30901
T: Over The Bridge To Peggy
R: reel
M: 4/4
K: Dmixolydian
d>AAB c>dBA|G>EEB c2Bc|d>AAB c>dBA|GEcE EDD2:|
d>ffa a>baf|e>def g2fe|d>ffa a>baf|d>faf [e2A2][e2A2]|
dffa a>baf|e>def g2fg|a>fge fded|cAGE D2D2||

